X:1
T:Title
%%score ( 1 2 ) { ( 3 5 ) | 4 }
L:1/8
Q:1/4=106
M:4/4
K:F
V:1 treble nm="Grand Piano, Soprano"
V:2 treble 
V:3 treble nm="Choir Pad, Pilgrimage (Herrnhut), LMD"
V:5 treble 
V:4 bass 
V:1
 [CF][EG] [FA]2 [EG]2 [FA]2 | [GB]2 AG [CF]2 [EG]2 | [FA]2 [DF]2 [EG]2 [FA]2 | %3
w: By~Herrnhut~MS.~Choral~Buch,~1735–445 * * * *|||
 [FB]2 [FA]2 [EG]2 [CF]2 | [CF][EG] [FA]2 [EG]2 [FA]2 | [GB]2 AG [CF]2 [EG]2 | %6
w: |||
 [FA]2 [DF]2 [EG]2 [FA]2 | [FB]2 [FA]2 [EG]2 [CF]2 | ABc-[Fc] [Gc]2 [Fc]2 | [Fd]2 cB [FA]2 [EB]2 | %10
w: ||||
 cB [FA]2 AB [Fc]2 | [Fd]2 [Fc]2 [EB]2 [FA]2 | [EG]2 [FA]2 [EG]2 [FA]2 | [GB]2 AG [CF]2 [EG]2 | %14
w: ||||
 [EA]2 [DF]2 [EG]2 [FA]2 | [FB]2 [FA]2 [EG]2 [CF]2- | [CF]6 z2 |] %17
w: |||
V:2
 x8 | z2 F2 z4 | x8 | x8 | x8 | z2 F2 z4 | x8 | x8 | C2 .C2 z4 | z2 E2 z4 | G2 z2 F2 z2 | x8 | x8 | %13
 z2 F2 z4 | x8 | x8 | x8 |] %17
V:3
 A,B, C2 C2 C2 | C2 C[K:bass]B, A,2 C2 | CA, B,2 B,2 C2 | C2 C2 z B, A,2 | %4
 A,B,[K:treble] C2 C2 C2 | C2 C[K:bass]B, A,2 C2 | CA,[K:treble] C2 B,2 C2 | %7
 D2 B,2[K:bass] z B, A,2 | F,G, A,2 B,2 A,2 | B,A, G,2 A,2 G,2 | C2 C2 D2 C2 | B,2 A,2 C2 C2 | %12
 C2 C2 C2 C2 | C2 C[K:bass]B, A,2 C2 | A,2 A,2[K:treble] C2 C2 | D2 C2 C2 A,2- | A,6 z2 |] %17
V:4
 F,2 F,,2 C,2 F,2 | E,2 F,2 F,2 C,2 | F,,2 B,,2 G,,2 F,,2 | B,,2 C,2 z2 F,,2 | F,2 F,,2 C,2 F,2 | %5
 E,2 F,2 F,2 C,2 | F,,2 B,,2 G,,2 F,,2 | B,,2 C,2 z2 F,,2 | F,,2 F,2 E,2 F,2 | B,,2 C,2 F,2 C,2 | %10
 E,2 F,2 D,2 A,,2 | B,,2 C,2 C,2 F,,2 | C,2 F,,2 C,2 F,2 | E,2 F,2 F,2 C,2 | ^C,2 D,2 =C,2 F,2 | %15
 B,,2 C,2 C,2 F,,2- | F,,6 z2 |] %17
V:5
 x8 | x3[K:bass] x5 | x8 | z4 C,2 z2 | x2[K:treble] x6 | x3[K:bass] x5 | x2[K:treble] x6 | %7
 z4[K:bass] C,2 z2 | x8 | x8 | x8 | x8 | x8 | x3[K:bass] x5 | x4[K:treble] x4 | x8 | x8 |] %17

